X: 4090
M: C
L: 1/16
K: G
ud2 |\
eg3 B3d edcB A3B | Gg3 d3c BG3 G2 :|
|: d2 |\
gg3 g3b a3b a4 | dg3 gb3 g3d ed3 |\
eg3 B3d edcB A3B | Gg3 d3c BG3 G2 :|


